X: 7
T: Cleveland Park
R: jig
M: 6/8
L: 1/8
K: Amin
EAB cBA|FAB cBA|^FAB cBA|BcB GAB|
EAB cBA|FAB cBA|BcB GAB|BAG A3:|
Ace aec|def ecA|FGA GAB|cdc BAG|
Ace aec|def ecA|FGA GAB|BAG A3|
Ace aec|def ecA|FGA GAB|cdc BAG|
EAB cBA|FAB cBA|BcB GAB|BAG A3|

